X: 1
T: Lochaber Badger, The
M: 4/4
L: 1/8
R: reel
K: Emin
z | &quot;Em&quot;B2AG AG&quot;C&quot;E2- | ~E2DE GD&quot;Bm7&quot;EG | B2AG AG&quot;Em&quot;E2 | ED&quot;Bm7&quot;GD &quot;Em&quot;E3z |
&quot;Em&quot;B2AG AG&quot;C&quot;E2- | ~E2DE GD&quot;Bm7&quot;EG |! B2AG AG&quot;Em&quot;E2 | ED&quot;Bm7&quot;GD &quot;Em&quot;E3 ||
z | &quot;Em&quot;~E2DE GE&quot;Am7&quot;A2- | ~A2AG Ad&quot;Bm7&quot;B2- |
 ~B2AG AG&quot;Em&quot;E2 | ED&quot;Bm7&quot;GD &quot;Em&quot;E3D |!
&quot;Em&quot;~E2DE GE&quot;Am7&quot;A2- | ~A2AG Ad&quot;Bm7&quot;B2- | ~B2AG AG&quot;Em&quot;E2 | ED&quot;Bm7&quot;GD &quot;Em&quot;E3 ||
